X:26
T:Wandering Boy,The. JBs.026
R:Jig
S:Jas.Blackshaw MS, 1837, N.Shropshire
Z:Tony Weatherall 2006
M:6/8
L:1/8
Q:3/8=120
A:North Shropshire
K:C
G|c>Bc dBG|e>de gfe|ceG Afd|c>dB c2:|!
|:g|gec A2d|fdB G2c|ccd e>dc|cBc d2G|!
c>Bc dBG|e>de gfd|ceG Afd|c>dBc2:|

